X:1
T:Young Peggy
M:4/4
L:1/16
K:C
C-D| E2G2 G2 AB c3 d c2B2| A3 G A2c2 d3- e d2D2| E2G2 G2A-B c3 d e3 d|\
d-cB-AG-A-c E D6|g-f| e2g2 c2e-fg-fe-f g3 e| f2a2 d2f-g a4 a2g-f| e3 g d3 e c3 G A3 c|\
 G3 c e3 c d4| c2||

